X: 11432
T: Eastern
R: reel
M: 4/4
K: Edorian
E2ED EBdB|f2fe e3e|f3a f3e|defe dBAF|
E2ED EBdB|f2fe e3e|1 defa f2fe|defe dBAF:|2 defa f2ef|bfaf e2fd||
K: Bdor
|:B2BA Bfaf|Bfaf BAfd|B2BA Bfaf|fbea deed|
B2BA Bfaf|Bfaf BAfd|B2BA Bfaf|deed deed:|

